X:246
T:The Farmer
C:Traditional American
S:Colin Hume's website,  colinhume.com  - chords can also be printed below the stave.
Q:1/2=112
M:2/2
L:1/4
K:A
cB | "A"A2 EA | A2 EA | AA GA | "E7"B3z | "E7"d2 B2 | GG EE | EE FG | "A"A3 |]

